!!!OTL: フライデーチャイナタウン
**kern	**dynam	**kern	**dynam	**kern	**text	**dynam	**kern	**text	**dynam	**kern	**text	**dynam	**kern	**text	**kern	**text
*part7	*part7	*part6	*part6	*part5	*part5	*part5	*part4	*part4	*part4	*part3	*part3	*part3	*part2	*part2	*part1	*part1
*staff7	*	*staff6	*	*staff5	*staff5	*	*staff4	*staff4	*	*staff3	*staff3	*	*staff2	*staff2	*staff1	*staff1
*I"てっぺい	*	*I"しょーぐん	*	*I"せいご	*	*	*I"あき	*	*	*I"ちづる	*	*	*I"げんたく	*	*I"Lead Vocal	*
*I'Perc.	*	*I'Bass.	*	*I'3rd.	*	*	*I'2nd.	*	*	*I'Top.	*	*	*I'Lead.	*	*I'Pno.	*
*stria3	*	*	*	*	*	*	*	*	*	*	*	*	*	*	*	*
*clefX	*	*clefF4	*	*clefGv2	*	*	*clefG2	*	*	*clefG2	*	*	*clefGv2	*	*clefG2	*
*k[]	*	*k[b-]	*	*k[b-]	*	*	*k[b-]	*	*	*k[b-]	*	*	*k[b-]	*	*k[b-]	*
*M4/4	*	*M4/4	*	*M4/4	*	*	*M4/4	*	*	*M4/4	*	*	*M4/4	*	*M4/4	*
*MM115	*	*MM115	*	*MM115	*	*	*MM115	*	*	*MM115	*	*	*MM115	*	*MM115	*
=1	=1	=1	=1	=1	=1	=1	=1	=1	=1	=1	=1	=1	=1	=1	=1	=1
1r	.	1D	.	8r	.	.	4r	.	.	1r	.	.	1r	.	1r	.
.	.	.	.	[8AL	tn	.	.	.	.	.	.	.	.	.	.	.
.	.	.	.	8A]	.	.	4f	tn	.	.	.	.	.	.	.	.
.	.	.	.	[8AJ	tn	.	.	.	.	.	.	.	.	.	.	.
.	.	.	.	8AL]	.	.	4e	tn	.	.	.	.	.	.	.	.
.	.	.	.	[8A	tn	.	.	.	.	.	.	.	.	.	.	.
.	.	.	.	8A]	.	.	4f	tn...	.	.	.	.	.	.	.	.
.	.	.	.	8AJ	tn...	.	.	.	.	.	.	.	.	.	.	.
=2	=2	=2	=2	=2	=2	=2	=2	=2	=2	=2	=2	=2	=2	=2	=2	=2
2r	.	1D	.	8r	.	.	4r	.	.	4r	.	.	2r	.	1r	.
.	.	.	.	[8AL	.	.	.	.	.	.	.	.	.	.	.	.
.	.	.	.	8A]	.	.	4f	.	.	8r	.	.	.	.	.	.
.	.	.	.	[8AJ	.	.	.	.	.	[8g	tn	.	.	.	.	.
4r	.	.	.	8AL]	.	.	4e	.	.	8gL]	.	.	4r	.	.	.
.	.	.	.	[8A	.	.	.	.	.	[8f	tn	.	.	.	.	.
*tremolo	*	*	*	*	*	*	*	*	*	*	*	*	*	*	*	*
64Rcc/LLLL	ppp < [[	.	.	8A]	.	.	4f	.	.	8f]	.	.	8dL	lu	.	.
64Rcc/	.	.	.	.	.	.	.	.	.	.	.	.	.	.	.	.
64Rcc/	.	.	.	.	.	.	.	.	.	.	.	.	.	.	.	.
64Rcc/	.	.	.	.	.	.	.	.	.	.	.	.	.	.	.	.
64Rcc/	.	.	.	.	.	.	.	.	.	.	.	.	.	.	.	.
64Rcc/	.	.	.	.	.	.	.	.	.	.	.	.	.	.	.	.
64Rcc/	.	.	.	.	.	.	.	.	.	.	.	.	.	.	.	.
64Rcc/	.	.	.	.	.	.	.	.	.	.	.	.	.	.	.	.
64Rcc/	.	.	.	8AJ	.	.	.	.	.	8gJ	lu	.	8eJ	lu	.	.
64Rcc/	.	.	.	.	.	.	.	.	.	.	.	.	.	.	.	.
64Rcc/	.	.	.	.	.	.	.	.	.	.	.	.	.	.	.	.
64Rcc/	.	.	.	.	.	.	.	.	.	.	.	.	.	.	.	.
64Rcc/	.	.	.	.	.	.	.	.	.	.	.	.	.	.	.	.
64Rcc/	.	.	.	.	.	.	.	.	.	.	.	.	.	.	.	.
64Rcc/	.	.	.	.	.	.	.	.	.	.	.	.	.	.	.	.
64Rcc/JJJJ	.	.	.	.	.	.	.	.	.	.	.	.	.	.	.	.
=3	=3	=3	=3	=3	=3	=3	=3	=3	=3	=3	=3	=3	=3	=3	=3	=3
8Ra/L 8Rgg	mp	1D	.	8r	.	.	4r	.	.	4.a	loo	.	4f	lu	1r	.
8Ree/	.	.	.	[8AL	.	.	.	.	.	.	.	.	.	.	.	.
8Ra/	.	.	.	8A]	.	.	4f	.	.	.	.	.	8dL	lu	.	.
8Ree/J	.	.	.	[8AJ	.	.	.	.	.	8b-	lu	.	8eJ	lu	.	.
8Ra/L	.	.	.	8AL]	.	.	4e	.	.	8aL	lu	.	4f	lu...	.	.
8Ree/	.	.	.	[8A	.	.	.	.	.	8g	lu	.	.	.	.	.
8Ra/	.	.	.	8A]	.	.	4f	.	.	8f	lu	.	8dL	.	.	.
8Ree/J	.	.	.	8AJ	.	.	.	.	.	8eJ	lu	.	8eJ	.	.	.
=4	=4	=4	=4	=4	=4	=4	=4	=4	=4	=4	=4	=4	=4	=4	=4	=4
8Ra/L	.	1D	.	8r	.	.	4r	.	.	4d	lu	.	8fL	.	1r	.
8Ree/	.	.	.	[8AL	.	.	.	.	.	.	.	.	8d	.	.	.
8Ra/	.	.	.	8A]	.	.	4f	.	.	8fL	la	.	8e	.	.	.
8Ree/J	.	.	.	[8AJ	.	.	.	.	.	8gJ	la	.	8fJ	.	.	.
8Ra/L	.	.	.	8AL]	.	.	4e	.	.	8eL	la	.	8dL	.	.	.
8Ree/	.	.	.	[8A	.	.	.	.	.	8f	la	.	8eJ	.	.	.
8Ra/	.	.	.	8A]	.	.	4f	.	.	8d	la	.	4f	.	.	.
8Rcc/J	.	.	.	8AJ	.	.	.	.	.	8eJ	la	.	.	.	.	.
=5	=5	=5	=5	=5	=5	=5	=5	=5	=5	=5	=5	=5	=5	=5	=5	=5
8Ra/L 8Ree	.	4BB-	.	8r	.	.	4r	.	.	4c#X	la	.	8gL	la	1r	.
8Ree/	.	.	.	4c#X	tn	.	.	.	.	.	.	.	8f	la	.	.
8Ra/	.	8r	.	.	.	.	4g	tn	.	8r	.	.	8e	la	.	.
8Ree/J	.	[8BB-	.	8c#	tu	.	.	.	.	8b-	tn	.	8dJ	la	.	.
8Ra/L	.	8BB-L]	.	8r	.	.	4r	.	.	8dd-XL	la	.	8eL	la	.	.
8Ree/J	.	8BB-	.	4A	tn	.	.	.	.	8b-	la	.	8d	la	.	.
.	.	.	.	.	.	.	.	.	.	8qb-/	.	.	8qd/	.	.	.
64Ra/ 64RccLLLL	pp < [[	8AA	.	.	.	.	4e	tn	.	8a	la	.	8c#X	la	.	.
64Ra/ 64Rcc	.	.	.	.	.	.	.	.	.	.	.	.	.	.	.	.
64Ra/ 64Rcc	.	.	.	.	.	.	.	.	.	.	.	.	.	.	.	.
64Ra/ 64Rcc	.	.	.	.	.	.	.	.	.	.	.	.	.	.	.	.
64Ra/ 64Rcc	.	.	.	.	.	.	.	.	.	.	.	.	.	.	.	.
64Ra/ 64Rcc	.	.	.	.	.	.	.	.	.	.	.	.	.	.	.	.
64Ra/ 64Rcc	.	.	.	.	.	.	.	.	.	.	.	.	.	.	.	.
64Ra/ 64Rcc	.	.	.	.	.	.	.	.	.	.	.	.	.	.	.	.
64Ra/ 64Rcc	.	8GGJ	.	8A	tu	.	.	.	.	8gJ	la	.	8BnJ	la	.	.
64Ra/ 64Rcc	.	.	.	.	.	.	.	.	.	.	.	.	.	.	.	.
64Ra/ 64Rcc	.	.	.	.	.	.	.	.	.	.	.	.	.	.	.	.
64Ra/ 64Rcc	.	.	.	.	.	.	.	.	.	.	.	.	.	.	.	.
64Ra/ 64Rcc	.	.	.	.	.	.	.	.	.	.	.	.	.	.	.	.
64Ra/ 64Rcc	.	.	.	.	.	.	.	.	.	.	.	.	.	.	.	.
64Ra/ 64Rcc	.	.	.	.	.	.	.	.	.	.	.	.	.	.	.	.
64Ra/ 64RccJJJJ	.	.	.	.	.	.	.	.	.	.	.	.	.	.	.	.
*Xtremolo	*	*	*	*	*	*	*	*	*	*	*	*	*	*	*	*
=6	=6	=6	=6	=6	=6	=6	=6	=6	=6	=6	=6	=6	=6	=6	=6	=6
1Rgg	mf	2AA	.	4.G	la	.	4.f	la	.	1a	la	.	1c#X	la	1r	.
.	.	.	.	16ALL	la	.	16gLL	la	.	.	.	.	.	.	.	.
.	.	.	.	16GJJ	.	.	16fJJ	.	.	.	.	.	.	.	.	.
.	.	2AA	.	4.A	la	.	4.e	la	.	.	.	.	.	.	.	.
.	.	.	.	8r	.	.	8r	.	.	.	.	.	.	.	.	.
=7	=7	=7	=7	=7	=7	=7	=7	=7	=7	=7	=7	=7	=7	=7	=7	=7
4Ree/	.	2r	.	1r	.	.	1r	.	.	1r	.	.	1r	.	1r	.
4Ree/	.	.	.	.	.	.	.	.	.	.	.	.	.	.	.	.
4Ree/	.	8r	.	.	.	.	.	.	.	.	.	.	.	.	.	.
.	.	16r	.	.	.	.	.	.	.	.	.	.	.	.	.	.
.	.	16A	.	.	.	.	.	.	.	.	.	.	.	.	.	.
4Ree/	.	8AL	.	.	.	.	.	.	.	.	.	.	.	.	.	.
.	.	8AAJ	.	.	.	.	.	.	.	.	.	.	.	.	.	.
=8	=8	=8	=8	=8	=8	=8	=8	=8	=8	=8	=8	=8	=8	=8	=8	=8
*^	*	*	*	*	*	*	*	*	*	*	*	*	*	*	*	*
4Rgg/	4Rd\	.	[2D	.	[2F	oo	.	4r	.	.	1d	oo	.	8AL	わ	8AL	わ
.	.	.	.	.	.	.	.	.	.	.	.	.	.	8B-	た	8B-	た
8Ra/L	4r	.	.	.	.	.	.	4f	oo	.	.	.	.	8A	し	8A	し
8Ree/J	.	.	.	.	.	.	.	.	.	.	.	.	.	8GJ	の	8GJ	の
8Ra/L	2r	.	4.D]	.	4.F]	.	.	4e	.	.	.	.	.	8FL	中	8FL	中
8Ree/	.	.	.	.	.	.	.	.	.	.	.	.	.	8G	.	8G	.
8Ra/	.	.	.	.	.	.	.	4f	.	.	.	.	.	8F	の	8F	の
8Ree/J	.	.	16CLL	.	16FLL	lu	.	.	.	.	.	.	.	8EJ	あ	8EJ	あ
.	.	.	16DJJ	.	16GJJ	lu	.	.	.	.	.	.	.	.	.	.	.
=9	=9	=9	=9	=9	=9	=9	=9	=9	=9	=9	=9	=9	=9	=9	=9	=9	=9
8r	4Rd\	.	[2C	.	1A	loo	.	4r	.	.	1e	.	.	4F	な	4F	な
8Ree/L	.	.	.	.	.	.	.	.	.	.	.	.	.	.	.	.	.
8Ra/	4r	.	.	.	.	.	.	4f	oo	.	.	.	.	4D	た	4D	た
8Ree/J	.	.	.	.	.	.	.	.	.	.	.	.	.	.	.	.	.
8Ra/L	2r	.	4C]	.	.	.	.	4e	.	.	.	.	.	4d'	を	4d'	を
8Ree/	.	.	.	.	.	.	.	.	.	.	.	.	.	.	.	.	.
8Ra/	.	.	8r	.	.	.	.	4f	.	.	.	.	.	8GL	い	8GL	い
8Ree/J	.	.	8C	.	.	.	.	.	.	.	.	.	.	8AJ	つ	8AJ	つ
=10	=10	=10	=10	=10	=10	=10	=10	=10	=10	=10	=10	=10	=10	=10	=10	=10	=10
8r	4Rd\	.	8.BB-L	.	2c	oo	.	2g	.	.	4r	.	.	8B-L	も	8B-L	も
8Ree/L	.	.	.	.	.	.	.	.	.	.	.	.	.	8B-	殺	8B-	殺
.	.	.	[16BB-Jk	.	.	.	.	.	.	.	.	.	.	.	.	.	.
8Ra/	4r	.	4BB-]	.	.	.	.	.	.	.	4b-	oo	.	8B-	.	8B-	.
8Ree/J	.	.	.	.	.	.	.	.	.	.	.	.	.	8dJ	し	8dJ	し
8Ra/L	4Rd\	.	4C	.	2B-	.	.	4e	.	.	2g	.	.	8cL	て	8cL	て
8Ree/	.	.	.	.	.	.	.	.	.	.	.	.	.	8B-	生	8B-	生
8Ra/	4r	.	8CL	.	.	.	.	4f	.	.	.	.	.	8A	き	8A	き
8Ree/J	.	.	8GGJ	.	.	.	.	.	.	.	.	.	.	8GJ	て	8GJ	て
=11	=11	=11	=11	=11	=11	=11	=11	=11	=11	=11	=11	=11	=11	=11	=11	=11	=11
8r	4Rd\	.	[2FF	.	[2A	.	.	4r	.	.	[2f	.	.	4B-	き	4B-	き
8Ree/L	.	.	.	.	.	.	.	.	.	.	.	.	.	.	.	.	.
8Ra/	4r	.	.	.	.	.	.	4f	oo	.	.	.	.	2A	た	2A	た
8Ree/J	.	.	.	.	.	.	.	.	.	.	.	.	.	.	.	.	.
8Ra/L	4r	.	8FF]	.	8A]	.	.	4e	.	.	8f]	.	.	.	.	.	.
8Ree/	.	.	8r	.	8r	.	.	.	.	.	8r	.	.	.	.	.	.
8Ra/	8r	.	4AA^	.	4c#X^	woo	.	4f^	woo	.	4g^	woo	.	4r	.	4r	.
8Ree/J	8Rd\	.	.	.	.	.	.	.	.	.	.	.	.	.	.	.	.
=12	=12	=12	=12	=12	=12	=12	=12	=12	=12	=12	=12	=12	=12	=12	=12	=12	=12
8r	4Rd\	.	[2D	.	1e	.	.	4r	.	.	1f	.	.	8AL	誰	8AL	誰
8Ree/L	.	.	.	.	.	.	.	.	.	.	.	.	.	8B-	.	8B-	.
8Ra/	4r	.	.	.	.	.	.	4f	oo	.	.	.	.	8A	も	8A	も
8Ree/J	.	.	.	.	.	.	.	.	.	.	.	.	.	8GJ	が	8GJ	が
8Ra/L	2r	.	4.D]	.	.	.	.	4e	.	.	.	.	.	8FL	知	8FL	知
8Ree/	.	.	.	.	.	.	.	.	.	.	.	.	.	8G	る	8G	る
8Ra/	.	.	.	.	.	.	.	4f	.	.	.	.	.	8F	あ	8F	あ
8Ree/J	.	.	16CLL	.	.	.	.	.	.	.	.	.	.	8EJ	の	8EJ	の
.	.	.	16DJJ	.	.	.	.	.	.	.	.	.	.	.	.	.	.
=13	=13	=13	=13	=13	=13	=13	=13	=13	=13	=13	=13	=13	=13	=13	=13	=13	=13
8r	4Rd\	.	2C	.	2c	.	.	4r	.	.	2d	.	.	4F	歌	4F	歌
8Ree/L	.	.	.	.	.	.	.	.	.	.	.	.	.	.	.	.	.
8Ra/	4r	.	.	.	.	.	.	4f	oo	.	.	.	.	4D	.	4D	.
8Ree/J	.	.	.	.	.	.	.	.	.	.	.	.	.	.	.	.	.
8Ra/L	2r	.	4FF'	.	4c'	が	.	4e'	が	.	4a'	が	.	4d'	が	4d'	が
8Ree/	.	.	.	.	.	.	.	.	.	.	.	.	.	.	.	.	.
8Ra/	.	.	4FF	.	4c	wah	.	4e	wah	.	4b-	wah	.	8GL	わ	8GL	わ
8Ree/J	.	.	.	.	.	.	.	.	.	.	.	.	.	8AJ	た	8AJ	た
=14	=14	=14	=14	=14	=14	=14	=14	=14	=14	=14	=14	=14	=14	=14	=14	=14	=14
8r	4Rd\	.	2BB-	.	8r	.	.	4r	.	.	4r	.	.	8B-L	し	8B-L	し
8Ree/L	.	.	.	.	[8dL	tn	.	.	.	.	.	.	.	8c	に	8c	に
8Ra/	4r	.	.	.	8d]	.	.	4g	tn	.	4b-	oh	.	8B-	は	8B-	は
8Ree/J	.	.	.	.	8dJ	tu	.	.	.	.	.	.	.	8AJ	響	8AJ	響
8Ra/L	4Rd\	.	4C	.	4d	oh	.	4e	oh	.	4g	oh	.	4B-	.	4B-	.
8Ree/J	.	.	.	.	.	.	.	.	.	.	.	.	.	.	.	.	.
8qRdd/	.	.	.	.	.	.	.	.	.	.	.	.	.	.	.	.	.
4Rcc^/	4r	.	4AA	.	4c#X	oh	.	4f	oh	.	4g	oh	.	4A	か	4A	か
=15	=15	=15	=15	=15	=15	=15	=15	=15	=15	=15	=15	=15	=15	=15	=15	=15	=15
4Rff^/	4Rd^\	.	2DD	.	2f	wah	.	2a	wah	.	4.dd	wah	.	2D	ない	2D	ない
4Rgg^/	4r	.	.	.	.	.	.	.	.	.	.	.	.	.	.	.	.
.	.	.	.	.	.	.	.	.	.	.	8r	.	.	.	.	.	.
4Rgg^/	4r	.	8r	.	8fL	la	.	2g	ah...	.	4a	ah...	.	2r	.	2r	.
.	.	.	[8DDL	.	8g	la	.	.	.	.	.	.	.	.	.	.	.
8qRa/	.	.	.	.	.	.	.	.	.	.	.	.	.	.	.	.	.
4Ra^/	8r	.	8DD]	.	8e	la	.	.	.	.	4b-	.	.	.	.	.	.
.	8Rd\	.	8DDJ	.	8fJ	la	.	.	.	.	.	.	.	.	.	.	.
=16||	=16||	=16||	=16||	=16||	=16||	=16||	=16||	=16||	=16||	=16||	=16||	=16||	=16||	=16||	=16||	=16||	=16||
8Rgg^/L	4Rd\	.	8.DL	.	2d	lah	.	2f	ah	.	2a	ah	.	8AL	笑	8AL	笑
8Ree/	.	.	.	.	.	.	.	.	.	.	.	.	.	8B-	.	8B-	.
.	.	.	[16DJk	.	.	.	.	.	.	.	.	.	.	.	.	.	.
8Ra/	4Rd\	.	8DL]	.	.	.	.	.	.	.	.	.	.	8A	い	8A	い
8Ree/J	.	.	[8DJ	.	.	.	.	.	.	.	.	.	.	8GJ	た	8GJ	た
8r	4Rd\	.	8D]	.	8r	.	.	8r	.	.	8r	.	.	8FL	い	8FL	い
8Ree/L	.	.	4D	.	4.e	hah	.	4.f	hah	.	4.a	hah	.	8G	時	8G	時
8Ra/	4Rd\	.	.	.	.	.	.	.	.	.	.	.	.	8F	.	8F	.
8Ree/J	.	.	8D	.	.	.	.	.	.	.	.	.	.	8EJ	で	8EJ	で
=17	=17	=17	=17	=17	=17	=17	=17	=17	=17	=17	=17	=17	=17	=17	=17	=17	=17
8r	4Rd\	.	8.CL	.	2c	.	.	2e	.	.	2g	.	.	4F	は	4F	は
8Ree/L	.	.	.	.	.	.	.	.	.	.	.	.	.	.	.	.	.
.	.	.	[16CJk	.	.	.	.	.	.	.	.	.	.	.	.	.	.
8Ra/	4Rd\	.	8CL]	.	.	.	.	.	.	.	.	.	.	4D	な	4D	な
8Ree/J	.	.	[8CJ	.	.	.	.	.	.	.	.	.	.	.	.	.	.
8r	4Rd\	.	8C]	.	8r	.	.	8r	.	.	8r	.	.	4d'	く	4d'	く
8Ree/L	.	.	4C	.	4.c	hah	.	4.e	hah	.	4.g	hah	.	.	.	.	.
8Ra/	4Rd\	.	.	.	.	.	.	.	.	.	.	.	.	8GL	笑	8GL	笑
8Ree/J	.	.	8C	.	.	.	.	.	.	.	.	.	.	8AJ	.	8AJ	.
=18	=18	=18	=18	=18	=18	=18	=18	=18	=18	=18	=18	=18	=18	=18	=18	=18	=18
8r	4Rd\	.	8.BB-L	.	2c	.	.	2f	.	.	4g	.	.	8B-L	う	8B-L	う
8Ree/L	.	.	.	.	.	.	.	.	.	.	.	.	.	8B-	べ	8B-	べ
.	.	.	[16BB-Jk	.	.	.	.	.	.	.	.	.	.	.	.	.	.
8Ra/	4Rd\	.	8BB-L]	.	.	.	.	.	.	.	4a	.	.	8B-	き	8B-	き
8Ree/J	.	.	8DJ	.	.	.	.	.	.	.	.	.	.	8dJ	時	8dJ	時
8r	4Rd\	.	8CL	.	2e	.	.	4g	.	.	2b-	.	.	8cL	.	8cL	.
8Ree/L	.	.	8BB-	.	.	.	.	.	.	.	.	.	.	8B-	に	8B-	に
8Ra/	4Rd\	.	8C	.	.	.	.	4f	.	.	.	.	.	8A	笑	8A	笑
8Ree/J	.	.	8GGJ	.	.	.	.	.	.	.	.	.	.	8GJ	.	8GJ	.
=19	=19	=19	=19	=19	=19	=19	=19	=19	=19	=19	=19	=19	=19	=19	=19	=19	=19
8r	4Rd\	.	8.FFL	.	8c	.	.	8f	.	.	8g	.	.	4B-'	っ	4B-'	っ
8Ree/L	.	.	.	.	8r	.	.	8r	.	.	8r	.	.	.	.	.	.
.	.	.	[16FJk	.	.	.	.	.	.	.	.	.	.	.	.	.	.
8Ra/	4Rd\	.	8FL]	.	4c	笑	.	4f	笑	.	4g	笑	.	2A	て	2A	て
8Ree/J	.	.	8FFJ	.	.	.	.	.	.	.	.	.	.	.	.	.	.
8r	4Rd\	.	8r	.	4e'	っ	.	4g'	っ	.	4b-'	っ	.	.	.	.	.
8Ree/L	.	.	4FF	.	.	.	.	.	.	.	.	.	.	.	.	.	.
8Ra/	4Rd\	.	.	.	[4e	て	.	[4f	て	.	[4a	て	.	4r	.	4r	.
8Ree/J	.	.	8FF	.	.	.	.	.	.	.	.	.	.	.	.	.	.
=20	=20	=20	=20	=20	=20	=20	=20	=20	=20	=20	=20	=20	=20	=20	=20	=20	=20
8Rgg^/L	4Rd\	.	8.DL	.	4.e]	.	.	4.f]	.	.	4.a]	.	.	8AL	狭	8AL	狭
8Ree/	.	.	.	.	.	.	.	.	.	.	.	.	.	8B-	.	8B-	.
.	.	.	[16DJk	.	.	.	.	.	.	.	.	.	.	.	.	.	.
8Ra/	4Rd\	.	8DL]	.	.	.	.	.	.	.	.	.	.	8A	い	8A	い
8Ree/J	.	.	[8DJ	.	8r	.	.	8r	.	.	8r	.	.	8GJ	水	8GJ	水
8r	4Rd\	.	8D]	.	[2c	foo	.	[2e	foo	.	[2g	foo	.	8FL	.	8FL	.
8Ree/L	.	.	4D	.	.	.	.	.	.	.	.	.	.	8G	槽	8G	槽
8Ra/	4Rd\	.	.	.	.	.	.	.	.	.	.	.	.	8F	.	8F	.
8Ree/J	.	.	8D	.	.	.	.	.	.	.	.	.	.	8EJ	の	8EJ	の
=21	=21	=21	=21	=21	=21	=21	=21	=21	=21	=21	=21	=21	=21	=21	=21	=21	=21
8r	4Rd\	.	8.CL	.	2c]	.	.	2e]	.	.	2g]	.	.	4F	中	4F	中
8Ree/L	.	.	.	.	.	.	.	.	.	.	.	.	.	.	.	.	.
.	.	.	[16CJk	.	.	.	.	.	.	.	.	.	.	.	.	.	.
8Ra/	4Rd\	.	8CL]	.	.	.	.	.	.	.	.	.	.	4D	.	4D	.
8Ree/J	.	.	[8CJ	.	.	.	.	.	.	.	.	.	.	.	.	.	.
8r	4Rd\	.	8C]	.	4B-'	を	.	[2f	woh	.	[2a	woh	.	4d'	を	4d'	を
8Ree/L	.	.	4C	.	.	.	.	.	.	.	.	.	.	.	.	.	.
8Ra/	4Rd\	.	.	.	8B-L	真	.	.	.	.	.	.	.	8GL	真	8GL	真
8Ree/J	.	.	8C	.	8cJ	四	.	.	.	.	.	.	.	8AJ	四	8AJ	四
=22	=22	=22	=22	=22	=22	=22	=22	=22	=22	=22	=22	=22	=22	=22	=22	=22	=22
8r	4Rd\	.	8.BB-L	.	8dL	角	.	8f]	.	.	8a]	.	.	8B-L	角	8B-L	角
8Ree/L	.	.	.	.	8B-	.	.	8r	.	.	8r	.	.	8c	.	8c	.
.	.	.	[16BB-Jk	.	.	.	.	.	.	.	.	.	.	.	.	.	.
8Ra/	4Rd\	.	8BB-L]	.	8c	に	.	4g	foo	.	4f	foo	.	8B-	に	8B-	に
8Ree/J	.	.	8BB-J	.	8dJ	泳	.	.	.	.	.	.	.	8AJ	泳	8AJ	泳
8r	4Rd\	.	4C	.	4c#X	.	.	4f	.	.	4e	.	.	4B-	.	4B-	.
8Ree/L	.	.	.	.	.	.	.	.	.	.	.	.	.	.	.	.	.
8Ra/	4Rd\	.	4C	.	4e	い	.	4e	.	.	4g	.	.	4A	い	4A	い
8Ree/J	.	.	.	.	.	.	.	.	.	.	.	.	.	.	.	.	.
=23	=23	=23	=23	=23	=23	=23	=23	=23	=23	=23	=23	=23	=23	=23	=23	=23	=23
8.Rgg/L	4Rd\	.	4DD	.	4d	だ	.	2f	wah	.	[2a	wah	.	2.D	だ	2.D	だ
16Ra/Jk	.	.	.	.	.	.	.	.	.	.	.	.	.	.	.	.	.
8r	4Rd\	.	8r	.	2.e	oh	.	.	.	.	.	.	.	.	.	.	.
8Ra/ 8Rcc	.	.	8DD	.	.	.	.	.	.	.	.	.	.	.	.	.	.
8Ra/L 8Ree	4Rd\	.	4DD	.	.	.	.	2g	oh	.	4a]	.	.	.	.	.	.
8Ree/	.	.	.	.	.	.	.	.	.	.	.	.	.	.	.	.	.
8Ra/	4Rd\	.	4D	.	.	.	.	.	.	.	4a	oh	.	4r	.	4r	.
8Ree/J	.	.	.	.	.	.	.	.	.	.	.	.	.	.	.	.	.
=24||	=24||	=24||	=24||	=24||	=24||	=24||	=24||	=24||	=24||	=24||	=24||	=24||	=24||	=24||	=24||	=24||	=24||
8Rgg/L	4Rd\	.	4C	.	4r	.	.	4r	.	.	4r	.	.	8CL	あ	8CL	あ
8Ree/	.	.	.	.	.	.	.	.	.	.	.	.	.	8D	な	8D	な
8Ra/	4Rd\	.	4GG	.	[4c	あ	.	[4e	あ	.	[4g	あ	.	8E	た	8E	た
[8Rcc/J	.	.	.	.	.	.	.	.	.	.	.	.	.	8FJ	が	8FJ	が
8Rcc/L]	4Rd\	.	8BB-L	.	8cL]	.	.	8eL]	.	.	8gL]	.	.	8GL	私	8GL	私
8Ree/	.	.	8CJ	.	8B-	な	.	8c	な	.	8f	な	.	8A	.	8A	.
8Ra/	4Rd\	.	4GG	.	8A	た	.	8d	た	.	8e	た	.	8B-	.	8B-	.
8Ree/J	.	.	.	.	8GJ	が	.	8eJ	が	.	8dJ	が	.	8cJ	を	8cJ	を
=25	=25	=25	=25	=25	=25	=25	=25	=25	=25	=25	=25	=25	=25	=25	=25	=25	=25
8r	4Rd\	.	4FF	.	4G	す	.	4e	す	.	4f	す	.	4B-	す	4B-	す
8Ree/L	.	.	.	.	.	.	.	.	.	.	.	.	.	.	.	.	.
8Ra/	4Rd\	.	4AA	.	4F	く	.	4c	く	.	4f	く	.	4A	く	4A	く
[8Rcc/J	.	.	.	.	.	.	.	.	.	.	.	.	.	.	.	.	.
8Rcc/L]	4Rd\	.	4FF	.	4A	い	.	4c	い	.	4a	い	.	4f	い	4f	い
8Ree/	.	.	.	.	.	.	.	.	.	.	.	.	.	.	.	.	.
8Ra/	4Rd\	.	4AA	.	4r	.	.	8r	.	.	8r	.	.	8r	.	8r	.
8Ree/J	.	.	.	.	.	.	.	8a	あ	.	8a	あ	.	8A	あ	8A	あ
=26	=26	=26	=26	=26	=26	=26	=26	=26	=26	=26	=26	=26	=26	=26	=26	=26	=26
8r	4Rd\	.	4GG#X	.	4E	dn	.	4g#X	げ	.	4g#X	げ	.	4G#X	げ	4G#X	げ
8Ree/L	.	.	.	.	.	.	.	.	.	.	.	.	.	.	.	.	.
8Ra/	4Rd\	.	4GG#	.	4E	dn	.	4g#	て	.	4bn	て	.	4Bn	て	4Bn	て
[8Rcc/J	.	.	.	.	.	.	.	.	.	.	.	.	.	.	.	.	.
8Rcc/L]	4Rd\	.	4EE	.	4G#X	dn	.	4a	く	.	4ee	く	.	4e	く	4e	く
8Ree/	.	.	.	.	.	.	.	.	.	.	.	.	.	.	.	.	.
8Ra/	4Rd\	.	4GG#	.	4E	dn	.	4f#X	れ	.	4dd	れ	.	4d	れ	4d	れ
8Ree/J	.	.	.	.	.	.	.	.	.	.	.	.	.	.	.	.	.
=27	=27	=27	=27	=27	=27	=27	=27	=27	=27	=27	=27	=27	=27	=27	=27	=27	=27
8r	4Rd\	.	4AA	.	4A	dn	.	4.e	る	.	4.dd	る	.	4.d	る	4.d	る
8Ree/L	.	.	.	.	.	.	.	.	.	.	.	.	.	.	.	.	.
8Ra/	4Rd\	.	4AA	.	8AL	lu	.	.	.	.	.	.	.	.	.	.	.
[8Rcc/J	.	.	.	.	8B-J	lu	.	8e	な	.	8cc#X	な	.	8c#X	な	8c#X	な
8Rcc/L]	4Rd\	.	8AAL	.	8AL	lu	.	4e	ら	.	4cc#	ら	.	4c#	ら	4c#	ら
8Ree/	.	.	8BB-	.	8G	lu	.	.	.	.	.	.	.	.	.	.	.
8Ra/	4Rd\	.	8AA	.	8F	lu	.	4r	.	.	4r	.	.	4r	.	4r	.
8Ree/J	.	.	8GGJ	.	8EJ	lu	.	.	.	.	.	.	.	.	.	.	.
=28	=28	=28	=28	=28	=28	=28	=28	=28	=28	=28	=28	=28	=28	=28	=28	=28	=28
8Rgg/L	4Rd\	.	4C	.	8GL	そ	.	8r	.	.	4r	.	.	8CL	そ	8CL	そ
8Ree/	.	.	.	.	8F	れ	.	[8dL	tn	.	.	.	.	8D	れ	8D	れ
8Ra/	4Rd\	.	4GG	.	8G	を	.	8d]	.	.	4g	tn	.	8E	を	8E	を
[8Rcc/J	.	.	.	.	8DJ	運	.	8dJ	tn	.	.	.	.	8FJ	運	8FJ	運
8Rcc/L]	4Rd\	.	8BB-L	.	8EL	.	.	8r	.	.	4r	.	.	8GL	.	8GL	.
8Ree/	.	.	8CJ	.	8F	命	.	[8dL	tn	.	.	.	.	8A	命	8A	命
8Ra/	4Rd\	.	4GG	.	8G	.	.	8d]	.	.	4g	tn	.	8B-	.	8B-	.
8Ree/J	.	.	.	.	8AJ	と	.	8dJ	tn	.	.	.	.	8cJ	と	8cJ	と
=29	=29	=29	=29	=29	=29	=29	=29	=29	=29	=29	=29	=29	=29	=29	=29	=29	=29
8r	4Rd\	.	4FF	.	4G	呼	.	8r	.	.	4r	.	.	4B-	呼	4B-	呼
8Ree/L	.	.	.	.	.	.	.	[8cL	tn	.	.	.	.	.	.	.	.
8Ra/	4Rd\	.	4AA	.	4F	ぼ	.	8c]	.	.	4f	tn	.	4A	ぼ	4A	ぼ
[8Rcc/J	.	.	.	.	.	.	.	8cJ	tn	.	.	.	.	.	.	.	.
8Rcc/L]	4Rd\	.	8FF	.	4A	う	.	8r	.	.	4r	.	.	4f	う	4f	う
8Ree/	.	.	8r	.	.	.	.	[8cL	tn	.	.	.	.	.	.	.	.
8Ra/	4Rd\	.	4AA	.	8r	.	.	8c]	.	.	4f	tn	.	8r	.	8r	.
8Ree/J	.	.	.	.	8c	叶	.	8cJ	tn	.	.	.	.	8A	叶	8A	叶
=30	=30	=30	=30	=30	=30	=30	=30	=30	=30	=30	=30	=30	=30	=30	=30	=30	=30
8r	4Rd\	.	4GG#X	.	4Bn	.	.	2e	hah	.	2g#X	hah	.	4G#X	.	4G#X	.
8Ree/L	.	.	.	.	.	.	.	.	.	.	.	.	.	.	.	.	.
8Ra/	4Rd\	.	4GG#	.	4d	わ	.	.	.	.	.	.	.	4Bn	わ	4Bn	わ
[8Rcc/J	.	.	.	.	.	.	.	.	.	.	.	.	.	.	.	.	.
8Rcc/L]	4Rd\	.	4EE	.	4g#X	な	.	2f#X	.	.	2bn	.	.	4e	な	4e	な
8Ree/	.	.	.	.	.	.	.	.	.	.	.	.	.	.	.	.	.
8Ra/	4Rd\	.	4GG#	.	4f#X	い	.	.	.	.	.	.	.	4d	い	4d	い
8Ree/J	.	.	.	.	.	.	.	.	.	.	.	.	.	.	.	.	.
=31	=31	=31	=31	=31	=31	=31	=31	=31	=31	=31	=31	=31	=31	=31	=31	=31	=31
8r	4Rd\	.	4AA	.	4.f#X	け	.	4.a	け	.	4.dd	け	.	4.d	け	4.d	け
8Ree/L	.	.	.	.	.	.	.	.	.	.	.	.	.	.	.	.	.
8Ra/	4Rd\	.	4AA	.	.	.	.	.	.	.	.	.	.	.	.	.	.
[8Rcc/J	.	.	.	.	8e	れ	.	8a	れ	.	8cc#X	れ	.	8c#X	れ	8c#X	れ
8Rcc/L]	4Rd\	.	8AAL	.	2e	ど	.	2a	ど	.	2cc#	ど	.	2c#	ど	2c#	ど
8Ree/	.	.	8BB-	.	.	.	.	.	.	.	.	.	.	.	.	.	.
8Ra/	4Rd\	.	8AA	.	.	.	.	.	.	.	.	.	.	.	.	.	.
8Ree/J	.	.	8GGJ	.	.	.	.	.	.	.	.	.	.	.	.	.	.
=32	=32	=32	=32	=32	=32	=32	=32	=32	=32	=32	=32	=32	=32	=32	=32	=32	=32
2r	2r	.	8r	.	8r	.	.	8r	.	.	8r	.	.	2r	.	2r	.
.	.	.	8AA'L	.	8d'L	tut	.	8f'L	tut	.	8a'L	tut	.	.	.	.	.
.	.	.	8AA'	.	8d'	tut	.	8f'	tut	.	8a'	tut	.	.	.	.	.
.	.	.	8AAJ	.	8c#XJ	tu	.	8eJ	tu	.	8aJ	tu	.	.	.	.	.
8qRdd/	.	.	.	.	.	.	.	.	.	.	.	.	.	.	.	.	.
8.Rcc/L	8.Rd\L	.	4.AA	<	4.c#	loo	<	4.e	loo	<	4.a	loo	<	4r	.	4r	.
16Rcc/Jk	16Rd\Jk	.	.	.	.	.	.	.	.	.	.	.	.	.	.	.	.
8qRcc/	.	.	.	.	.	.	.	.	.	.	.	.	.	.	.	.	.
8Rb/L	8Rd\L	.	.	.	.	.	.	.	.	.	.	.	.	8dL	も	8dL	も
8Rf/J	8Rd\J	.	8r	[	8r	.	[	8r	.	[	8r	.	[	8eJ	が	8eJ	が
=33	=33	=33	=33	=33	=33	=33	=33	=33	=33	=33	=33	=33	=33	=33	=33	=33	=33
8Rff^/L	4Rd\	.	4DD	.	1f	hah	.	1a	hah	.	1dd	hah	.	4f'	き	4f'	き
8Rcc/	.	.	.	.	.	.	.	.	.	.	.	.	.	.	.	.	.
8Ra/	8Rd\	.	4DD	.	.	.	.	.	.	.	.	.	.	8dL	あ	8dL	あ
8Rcc/J	8r	.	.	.	.	.	.	.	.	.	.	.	.	8eJ	が	8eJ	が
8r	8Rd\	.	4DD	.	.	.	.	.	.	.	.	.	.	4f'	き	4f'	き
8Rcc/L	8r	.	.	.	.	.	.	.	.	.	.	.	.	.	.	.	.
8Ra/	4Rd\	.	4DD	.	.	.	.	.	.	.	.	.	.	8dL	泣	8dL	泣
8Rcc/J	.	.	.	.	.	.	.	.	.	.	.	.	.	8eJ	き	8eJ	き
=34	=34	=34	=34	=34	=34	=34	=34	=34	=34	=34	=34	=34	=34	=34	=34	=34	=34
8r	4Rd\	.	4C	.	1d	.	.	1a	.	.	[2cc	.	.	8fL	喚	8fL	喚
8Rcc/L	.	.	.	.	.	.	.	.	.	.	.	.	.	8d	.	8d	.
8Ra/	8Rd\	.	4C	.	.	.	.	.	.	.	.	.	.	8e	き	8e	き
8Rcc/J	8r	.	.	.	.	.	.	.	.	.	.	.	.	8fJ	叫	8fJ	叫
8r	8Rd\	.	4C	.	.	.	.	.	.	.	4.cc]	.	.	8dL	.	8dL	.
8Rcc/L	8r	.	.	.	.	.	.	.	.	.	.	.	.	8eJ	べ	8eJ	べ
8Ra/	4Rd\	.	4C	.	.	.	.	.	.	.	.	.	.	4f'	ど	4f'	ど
8Rcc/J	.	.	.	.	.	.	.	.	.	.	8r	.	.	.	.	.	.
=35	=35	=35	=35	=35	=35	=35	=35	=35	=35	=35	=35	=35	=35	=35	=35	=35	=35
8r	4Rd\	.	8EE	.	4r	.	.	4r	.	.	8eeL	あ	.	8gL	あ	8gL	あ
8Rcc/L	.	.	8r	.	.	.	.	.	.	.	8dd	な	.	8f	な	8f	な
8Ra/	8Rd\	.	4EE	.	[4d	hah	.	[4g	hah	.	8cc#X	た	.	8e	た	8e	た
8Rcc/J	8r	.	.	.	.	.	.	.	.	.	8bnJ	に	.	8dJ	に	8dJ	に
8r	8Rd\	.	8GG	.	4d]	.	.	4g]	.	.	8dd-XL	届	.	8eL	届	8eL	届
8Rcc/L	8r	.	8r	.	.	.	.	.	.	.	8cc-X	.	.	8d	.	8d	.
8Ra/	4Rd\	.	4GG	.	4d	.	.	4g	.	.	8b-X	か	.	8c#X	か	8c#X	か
8Rcc/J	.	.	.	.	.	.	.	.	.	.	8gJ	な	.	8BnJ	な	8BnJ	な
=36	=36	=36	=36	=36	=36	=36	=36	=36	=36	=36	=36	=36	=36	=36	=36	=36	=36
8r	4Rd\	.	8AA	.	4.e	.	.	4.g	.	.	4a'	い	.	4c#X'	い	4c#X'	い
8Rcc/L	.	.	8r	.	.	.	.	.	.	.	.	.	.	.	.	.	.
8Ra/	8Rd\	.	4AA	.	.	.	.	.	.	.	4e	foo	.	4b-	芝	4b-	芝
8Rcc/J	8r	.	.	.	16fLL	.	.	16aLL	.	.	.	.	.	.	.	.	.
.	.	.	.	.	16eJJ	.	.	16gJJ	.	.	.	.	.	.	.	.	.
8r	8Rd\	.	4A	.	8d	あっ	.	8f	あっ	.	8a	.	.	4a'	居	4a'	居
8Ra/ 8Rdd	8r	.	.	.	8r	.	.	8r	.	.	8r	.	.	.	.	.	.
16r	4Rd\	.	4AA	.	4c#X	oh	.	4e	oh	.	4a	oh	.	8dL	愛	8dL	愛
8.Ra/ 8.Rb	.	.	.	.	.	.	.	.	.	.	.	.	.	.	.	.	.
.	.	.	.	.	.	.	.	.	.	.	.	.	.	8eJ	.	8eJ	.
=37	=37	=37	=37	=37	=37	=37	=37	=37	=37	=37	=37	=37	=37	=37	=37	=37	=37
8Rff^/L	4Rd\	.	4DD	.	4d	.	.	2f	.	.	2a	.	.	4f'	が	4f'	が
8Rcc/	.	.	.	.	.	.	.	.	.	.	.	.	.	.	.	.	.
8Ra/	8Rd\	.	4D	.	4e	.	.	.	.	.	.	.	.	8dL	欲	8dL	欲
8Rcc/J	8r	.	.	.	.	.	.	.	.	.	.	.	.	8eJ	し	8eJ	し
8r	8Rd\	.	4C#X	.	2d	.	.	4f	.	.	2a	.	.	4f'	い	4f'	い
8Rcc/L	8r	.	.	.	.	.	.	.	.	.	.	.	.	.	.	.	.
8Ra/	4Rd\	.	4C#	.	.	.	.	4g	.	.	.	.	.	8dL	た	8dL	た
8Rcc/J	.	.	.	.	.	.	.	.	.	.	.	.	.	8eJ	だ	8eJ	だ
=38	=38	=38	=38	=38	=38	=38	=38	=38	=38	=38	=38	=38	=38	=38	=38	=38	=38
8r	4Rd\	.	4C	.	2d	.	.	2a	.	.	4b-	.	.	8fL	そ	8fL	そ
8Rcc/L	.	.	.	.	.	.	.	.	.	.	.	.	.	8d	れ	8d	れ
8Ra/	8Rd\	.	4C	.	.	.	.	.	.	.	4g	.	.	8e	だ	8e	だ
8Rcc/J	8r	.	.	.	.	.	.	.	.	.	.	.	.	8fJ	け	8fJ	け
8r	8Rd\	.	4BBn	.	2e	.	.	2f	.	.	2a	.	.	8dL	な	8dL	な
8Rcc/L	8r	.	.	.	.	.	.	.	.	.	.	.	.	8eJ	の	8eJ	の
8Ra/	4Rd\	.	4BB	.	.	.	.	.	.	.	.	.	.	4f'	に	4f'	に
8Rcc/J	.	.	.	.	.	.	.	.	.	.	.	.	.	.	.	.	.
=39	=39	=39	=39	=39	=39	=39	=39	=39	=39	=39	=39	=39	=39	=39	=39	=39	=39
8r	4Rd\	.	8EE	.	4r	.	.	4r	.	.	4r	.	.	8gL	巡	8gL	巡
8Rcc/L	.	.	8r	.	.	.	.	.	.	.	.	.	.	8f	.	8f	.
8Ra/	8Rd\	.	4EE	.	[4d	め	.	[4g	め	.	[4b-	め	.	8e	れ	8e	れ
8Rcc/J	8r	.	.	.	.	.	.	.	.	.	.	.	.	8dJ	ど	8dJ	ど
8r	8Rd\	.	4GG	.	8dL]	.	.	8gL]	.	.	8b-L]	.	.	8eL	巡	8eL	巡
8Ra/ 8Rdd	8r	.	.	.	8B-	ぐ	.	8f	ぐ	.	8b-	ぐ	.	8d	.	8d	.
16r	4Rd\	.	4GG	.	8A	れ	.	8e	れ	.	8a	れ	.	8c#X	れ	8c#X	れ
8.Ra/ 8.Rb	.	.	.	.	.	.	.	.	.	.	.	.	.	.	.	.	.
.	.	.	.	.	8GJ	ど	.	8dJ	ど	.	8gJ	ど	.	8BnJ	ど	8BnJ	ど
=40	=40	=40	=40	=40	=40	=40	=40	=40	=40	=40	=40	=40	=40	=40	=40	=40	=40
4Rff/	4Rd\	.	2.AA	.	4c-X	闇	.	4e	闇	.	4a	闇	.	4c#X	闇	4c#X	闇
4r	4r	.	.	.	4c-	.	.	4g	.	.	4dd	.	.	4b-	.	4b-	.
16Ra/LL 16Rdd	2Rd\	.	.	.	4d	は	.	4f	は	.	4cc#X	は	.	4a	は	4a	は
16Rdd/	.	.	.	.	.	.	.	.	.	.	.	.	.	.	.	.	.
16Rdd/	.	.	.	.	.	.	.	.	.	.	.	.	.	.	.	.	.
16Rdd/JJ	.	.	.	.	.	.	.	.	.	.	.	.	.	.	.	.	.
16Rf/LL 16Ra	.	.	8r	.	4c#X	闇	.	4e	闇	.	4a	闇	.	4c#	闇	4c#	闇
16Rf/	.	.	.	.	.	.	.	.	.	.	.	.	.	.	.	.	.
16Rf/	.	.	8AA	.	.	.	.	.	.	.	.	.	.	.	.	.	.
16Rf/JJ	.	.	.	.	.	.	.	.	.	.	.	.	.	.	.	.	.
=41	=41	=41	=41	=41	=41	=41	=41	=41	=41	=41	=41	=41	=41	=41	=41	=41	=41
8Rgg/L	4Rd\	.	1D	.	2A	.	.	2e	.	.	[2f	.	.	[2d	.	[2d	.
8Rcc/	.	.	.	.	.	.	.	.	.	.	.	.	.	.	.	.	.
8Ra/	4r	.	.	.	.	.	.	.	.	.	.	.	.	.	.	.	.
8Rcc/J	.	.	.	.	.	.	.	.	.	.	.	.	.	.	.	.	.
8r	8Rd\	.	.	.	4r	.	.	8r	.	.	4.f]	.	.	4.d]	.	4.d]	.
8Rcc/L	8r	.	.	.	.	.	.	4.e	tn	.	.	.	.	.	.	.	.
8Ra/	4r	.	.	.	16r	.	.	.	.	.	.	.	.	.	.	.	.
.	.	.	.	.	8.A	too	.	.	.	.	.	.	.	.	.	.	.
8Rcc/J	.	.	.	.	.	.	.	.	.	.	8r	.	.	8r	.	8r	.
=42	=42	=42	=42	=42	=42	=42	=42	=42	=42	=42	=42	=42	=42	=42	=42	=42	=42
8r	4Rd\	.	1D	.	8.dL	tu	.	1f	foo	.	1a	foo	.	1A	foo	1A	foo
8Rcc/L	.	.	.	.	.	.	.	.	.	.	.	.	.	.	.	.	.
.	.	.	.	.	[8.c	loo	.	.	.	.	.	.	.	.	.	.	.
8Ra/	4r	.	.	.	.	.	.	.	.	.	.	.	.	.	.	.	.
8Rcc/J	.	.	.	.	8cJ]	.	.	.	.	.	.	.	.	.	.	.	.
8r	8Rd\	.	.	.	8r	.	.	.	.	.	.	.	.	.	.	.	.
8Rcc/L	8r	.	.	.	16r	.	.	.	.	.	.	.	.	.	.	.	.
.	.	.	.	.	16f	tu	.	.	.	.	.	.	.	.	.	.	.
8Ra/	4r	.	.	.	8.gL	lu	.	.	.	.	.	.	.	.	.	.	.
8Rcc/J	.	.	.	.	.	.	.	.	.	.	.	.	.	.	.	.	.
.	.	.	.	.	16AJk	.	.	.	.	.	.	.	.	.	.	.	.
*v	*v	*	*	*	*	*	*	*	*	*	*	*	*	*	*	*	*
==	==	==	==	==	==	==	==	==	==	==	==	==	==	==	==	==
*-	*-	*-	*-	*-	*-	*-	*-	*-	*-	*-	*-	*-	*-	*-	*-	*-
